X:1
T:The Well-Tempered Clavier Part II Praeludium VIII
T:BWV 877
T:J. S. Bach
%%score { 1 | 2 }
L:1/8
M:4/4
K:F#
V:1 treble nm="Harp"
V:2 bass 
V:1
 D/F/E/G/ F/A/G/B/ A/d/^^c/^B/ A/G/F/E/ | F^^CDd d/4^^c/4^B/A z d/4c/4B/4c/4 | %2
 d/f/e/g/ f/e/d/c/ Bd g/4f/4g3/2- | g/e/f/d/ e/g/c/B/ Ac f/4e/4f3/2- | %4
 f/e/d/^^c/ d/f/G/f/ e/d/^c/^B/ c/e/F/=e/ | d/c/B/A/ B/d/^E/d/ B/d/F/d/ B/d/G/d/ | %6
 c/B/A/G/ A/c/D/c/ A/c/E/c/ A/c/F/c/ | B/A/G/F/ G/B/C/B/ G/B/D/B/ G/B/E/B/ | %8
 A/F/E/d/ c/A/G/f/ f/4e/4d/c z2 | F/A/G/B/ A/c/B/d/ c/f/e/d/ c/B/A/G/ | %10
 A/c/^B/d/ c/e/d/f/ e/a/^^g/^^f/ e/d/c/B/ | c^^GAf G/4^^F/4E/d z/ G/A/^B/ | %12
 E/c/^B/d/ c/B/A/^^G/ c/A/G/B/ A/^G/F/E/ | %13
 D/c/^B/d/ c/B/A/^^G/ ^^f/c/B/A/ a/4^^g/4a/4g/4a/4g/4^^f/4g/4 | %14
 a/g/4f/4e/d/ c/a/^B/^^g/ a/A/d/4c/4B/ c/B/4A/4^^G/4A/4B/ | %15
 E/4A/4G/4F/4E/D/ C/^B,/4C/4D/4C/4B,/ A,/C/E/^^G/ GA | D/F/E/G/ F/A/G/B/ A/d/^^c/^B/ A/G/F/E/ | %17
 F^^CDd d/4^^c/4^B/A z d/4c/4B/4c/4 | d/f/e/g/ f/e/d/c/ Bd g/4f/4g3/2- | %19
 g/e/f/d/ e/g/c/B/ Ac f/4e/4f3/2- | f/e/d/^^c/ d/f/G/f/ e/d/^c/^B/ c/e/F/=e/ | %21
 d/c/B/A/ B/d/^E/d/ B/d/F/d/ B/d/G/d/ | c/B/A/G/ A/c/D/c/ A/c/E/c/ A/c/F/c/ | %23
 B/A/G/F/ G/B/C/B/ G/B/D/B/ G/B/E/B/ | A/F/E/d/ c/A/G/f/ f/4e/4d/c z2 | %25
 F/A/G/B/ A/c/B/d/ c/f/e/d/ c/B/A/G/ | A/c/^B/d/ c/e/d/f/ e/a/^^g/^^f/ e/d/c/B/ | %27
 c^^GAf G/4^^F/4E/d z/ G/A/^B/ | E/c/^B/d/ c/B/A/^^G/ c/A/G/B/ A/^G/F/E/ | %29
 D/c/^B/d/ c/B/A/^^G/ ^^f/c/B/A/ a/4^^g/4a/4g/4a/4g/4^^f/4g/4 | %30
 a/g/4f/4e/d/ c/a/^B/^^g/ a/A/d/4c/4B/ c/B/4A/4^^G/4A/4B/ | %31
 E/4A/4G/4F/4E/D/ C/^B,/4C/4D/4C/4B,/ A,/C/E/^^G/ GA | %32
 g/e/4^^c/4A- A/c/4e/4f/4e/4d/ =c/e/4g/4b- b/e/4d/4e/4f/4g/ | %33
 f/e/d/^^c/ d/f/G/f/ d/f/A/f/ d/f/^B/f/ | c/e/d/f/ e/g/f/a/ g/b/a/g/ f/e/d/c/ | %35
 f/B/A/G/ A/=ed/ c/fe/ d/f/b/^^f/ | g/=e/d/f/ e/d/c/^B/ A/c/=B/d/ c/B/A/G/ | %37
 ^^FA d/4c/4d3/2- d/B/c/A/ B/d/G/^F/ | =EG c/4B/4c3/2- c/E/D/^^C/ DA | %39
 d/c/4B/4A/4B/4c/ B/g/A/^^f/ g/=e/d/c/ d/G/^^F/c/ | B/A/G/^^F/ G/B/C/B/ G/B/D/B/ G/B/E/B/ | %41
 A/G/F/E/ F/A/^B,/A/ F/A/^^C/A/ F/A/D/A/ | G/F/E/D/ E/G/A,/G/ E/G/^B,/G/ E/G/^^C/G/ | %43
 F/A/^^c/e/ A/c/e/g/ f/4e/4d/e z2 | D/F/E/G/ F/A/G/B/ A/d/^^c/^B/ A/G/F/E/ | %45
 F/A/G/B/ A/G/F/E/ D/F/E/G/ F/E/D/^^C/ | D/G/^^F/A/ G/^F/E/D/ ^^C/E/D/F/ E/D/C/^B,/ | %47
 A,A G/F/E/F/ D/^^F/E/G/ F/A/G/B/ | A/c/B/A/ G/^^F/^E/D/ d/^B/4^^G/4E- E/G/4B/4c/4B/4A/ | %49
 ^^G/^B/4d/4f- f/B/4A/4B/4^^c/4d/ c/e/d/f/ e/g/f/a/ | %50
 g/b/a/g/ f/e/d/^^c/ d/e/4f/4g/4f/4e/ f/e/4d/4c/4d/4e/ | %51
 A/4d/4c/4B/4A/G/ F/E/4F/4G/4F/4E/ D/F/A/^^c/ cd | %52
 g/e/4^^c/4A- A/c/4e/4f/4e/4d/ =c/e/4g/4b- b/e/4d/4e/4f/4g/ | %53
 f/e/d/^^c/ d/f/G/f/ d/f/A/f/ d/f/^B/f/ | c/e/d/f/ e/g/f/a/ g/b/a/g/ f/e/d/c/ | %55
 f/B/A/G/ A/=ed/ c/fe/ d/f/b/^^f/ | g/=e/d/f/ e/d/c/^B/ A/c/=B/d/ c/B/A/G/ | %57
 ^^FA d/4c/4d3/2- d/B/c/A/ B/d/G/^F/ | =EG c/4B/4c3/2- c/E/D/^^C/ DA | %59
 d/c/4B/4A/4B/4c/ B/g/A/^^f/ g/=e/d/c/ d/G/^^F/c/ | B/A/G/^^F/ G/B/C/B/ G/B/D/B/ G/B/E/B/ | %61
 A/G/F/E/ F/A/^B,/A/ F/A/^^C/A/ F/A/D/A/ | G/F/E/D/ E/G/A,/G/ E/G/^B,/G/ E/G/^^C/G/ | %63
 F/A/^^c/e/ A/c/e/g/ f/4e/4d/e z2 | D/F/E/G/ F/A/G/B/ A/d/^^c/^B/ A/G/F/E/ | %65
 F/A/G/B/ A/G/F/E/ D/F/E/G/ F/E/D/^^C/ | D/G/^^F/A/ G/^F/E/D/ ^^C/E/D/F/ E/D/C/^B,/ | %67
 A,A G/F/E/F/ D/^^F/E/G/ F/A/G/B/ | A/c/B/A/ G/^^F/^E/D/ d/^B/4^^G/4E- E/G/4B/4c/4B/4A/ | %69
 ^^G/^B/4d/4f- f/B/4A/4B/4^^c/4d/ c/e/d/f/ e/g/f/a/ | %70
 g/b/a/g/ f/e/d/^^c/ d/e/4f/4g/4f/4e/ f/e/4d/4c/4d/4e/ | %71
 A/4d/4c/4B/4A/G/ F/E/4F/4G/4F/4E/ D/F/A/^^c/ c!fermata!d |] %72
V:2
 D,/4C,/4D,/-D, D,,2 z4 | D,/F,/E,/G,/ F,/A,/G,/B,/ A,/D/^^C/^B,/ A,/G,/F,/E,/ | %2
 F,^^C,D,F, G,/B,/A,/C/ B,/A,/G,/F,/ | E,G, C/4B,/4C3/2- C/A,/B,/G,/ A,/C/F,/E,/ | %4
 D,F, B,/4A,/4B,3/2 C,E, A,/4G,/4A,3/2 | B,,D,G,C, D,B,G,E, | A,,C,F,B,, C,A,F,D, | %7
 G,,B,,E,A,, B,,G,E,C, | F,,/A,,/G,,/B,,/ A,,/C,/B,,/D,/ C,/F,/E,/D,/ C,/B,,/A,,/G,,/ | %9
 A,,C,F,G, A,B,CC, | F,D,E,^B,, C,D,E,E,, | %11
 A,,/C,/^B,,/D,/ C,/E,/D,/F,/ E,/A,/^^G,/^^F,/ E,/D,/C,/B,,/ | %12
 C,/E,/D,/F,/ E,/D,/C,/^B,,/ A,,/C,/B,,/D,/ C,/B,,/A,,/G,,/ | %13
 ^^F,,/A,,/^^G,,/^B,,/ A,,/^G,,/^F,,/E,,/ ^^D,,^^D, z/ F,/E,/^D,/ | %14
 C,/^B,,/C,/D,/ E,/F,/D,/E,/ F,F,,E,,D,, | C,,C,/D,/ E,E,, A,,4 | D,/4C,/4D,/-D, D,,2 z4 | %17
 D,/F,/E,/G,/ F,/A,/G,/B,/ A,/D/^^C/^B,/ A,/G,/F,/E,/ | F,^^C,D,F, G,/B,/A,/C/ B,/A,/G,/F,/ | %19
 E,G, C/4B,/4C3/2- C/A,/B,/G,/ A,/C/F,/E,/ | D,F, B,/4A,/4B,3/2 C,E, A,/4G,/4A,3/2 | %21
 B,,D,G,C, D,B,G,E, | A,,C,F,B,, C,A,F,D, | G,,B,,E,A,, B,,G,E,C, | %24
 F,,/A,,/G,,/B,,/ A,,/C,/B,,/D,/ C,/F,/E,/D,/ C,/B,,/A,,/G,,/ | A,,C,F,G, A,B,CC, | %26
 F,D,E,^B,, C,D,E,E,, | A,,/C,/^B,,/D,/ C,/E,/D,/F,/ E,/A,/^^G,/^^F,/ E,/D,/C,/B,,/ | %28
 C,/E,/D,/F,/ E,/D,/C,/^B,,/ A,,/C,/B,,/D,/ C,/B,,/A,,/G,,/ | %29
 ^^F,,/A,,/^^G,,/^B,,/ A,,/^G,,/^F,,/E,,/ ^^D,,^^D, z/ F,/E,/^D,/ | %30
 C,/^B,,/C,/D,/ E,/F,/D,/E,/ F,F,,E,,D,, | C,,C,/D,/ E,E,, A,,4 | %32
 A,,/^^C,/^B,,/D,/ C,/E,/D,/F,/ E,/G,/F,/E,/ D,/C,/B,,/A,,/ | D,F,^B,E, F,DB,G, | %34
 B,/G,/4E,/4C,- C,/E,/4G,/4A,/4G,/4F,/ E,/G,/4B,/4D- D/G,/4F,/4G,/4A,/4B,/ | %35
 A,/G,/F,/E,/ F,/A,/B,,/A,/ F,/A,/C,/A,/ F,/A,/D,/A,/ | %36
 =E,/G,/F,/=A,/ G,/F,/E,/D,/ C,E, ^A,/4G,/4A,3/2- | %37
 A,/^^F,/G,/^E,/ F,/A,/D,/C,/ B,,D, G,/4F,/4G,3/2- | %38
 G,/F,/=E,/D,/ E,/G,/C,/B,,/ A,,/G,/^^F,/^E,/ F,/A,/D,/C,/ | B,,=E,C,D, G,,A,,B,,A,, | %40
 G,,B,,E,A,, B,,G,E,C, | F,,A,,D,G,, A,,F,D,B,, | E,,G,,^^C,F,, G,,E,C,A,, | %43
 D,,/F,,/E,,/G,,/ F,,/A,,/G,,/B,,/ A,,/D,/^^C,/^B,,/ A,,/G,,/F,,/E,,/ | %44
 F,,/A,,/^^C,/E,/ A,,/C,/E,/G,/ F,/4E,/4D,/E, z A, | D,B,C,A, B,,G,A,,A, | %46
 B,/G,/A,/C/ B,/A,/G,/B,/ A,/E,/F,/A,/ G,/F,/E,/G,/ | %47
 F,/^^C,/D,/F,/ A,A,, C/A,/4^^F,/4D,- D,/F,/4A,/4B,/4A,/4G,/ | %48
 ^^F,/A,/4C/4=E- E/A,/4G,/4A,/4B,/4C/ ^E,/^^G,/F,/A,/ G,/^B,/A,/C/ | %49
 ^B,/D/C/B,/ A,/^^G,/^^F,/E,/ ^G,/E,/4^^C,/4A,,- A,,/C,/4E,/4A,- | %50
 A,/G,/4E,/4^^C,/B,/ A,/G,/4F,/4E,/4F,/4G,/ F,B,,A,,G,, | F,,F,/G,/ A,A,, D,,4 | %52
 A,,/^^C,/^B,,/D,/ C,/E,/D,/F,/ E,/G,/F,/E,/ D,/C,/B,,/A,,/ | D,F,^B,E, F,DB,G, | %54
 B,/G,/4E,/4C,- C,/E,/4G,/4A,/4G,/4F,/ E,/G,/4B,/4D- D/G,/4F,/4G,/4A,/4B,/ | %55
 A,/G,/F,/E,/ F,/A,/B,,/A,/ F,/A,/C,/A,/ F,/A,/D,/A,/ | %56
 =E,/G,/F,/=A,/ G,/F,/E,/D,/ C,E, ^A,/4G,/4A,3/2- | %57
 A,/^^F,/G,/^E,/ F,/A,/D,/C,/ B,,D, G,/4F,/4G,3/2- | %58
 G,/F,/=E,/D,/ E,/G,/C,/B,,/ A,,/G,/^^F,/^E,/ F,/A,/D,/C,/ | B,,=E,C,D, G,,A,,B,,A,, | %60
 G,,B,,E,A,, B,,G,E,C, | F,,A,,D,G,, A,,F,D,B,, | E,,G,,^^C,F,, G,,E,C,A,, | %63
 D,,/F,,/E,,/G,,/ F,,/A,,/G,,/B,,/ A,,/D,/^^C,/^B,,/ A,,/G,,/F,,/E,,/ | %64
 F,,/A,,/^^C,/E,/ A,,/C,/E,/G,/ F,/4E,/4D,/E, z A, | D,B,C,A, B,,G,A,,A, | %66
 B,/G,/A,/C/ B,/A,/G,/B,/ A,/E,/F,/A,/ G,/F,/E,/G,/ | %67
 F,/^^C,/D,/F,/ A,A,, C/A,/4^^F,/4D,- D,/F,/4A,/4B,/4A,/4G,/ | %68
 ^^F,/A,/4C/4=E- E/A,/4G,/4A,/4B,/4C/ ^E,/^^G,/F,/A,/ G,/^B,/A,/C/ | %69
 ^B,/D/C/B,/ A,/^^G,/^^F,/E,/ ^G,/E,/4^^C,/4A,,- A,,/C,/4E,/4A,- | %70
 A,/G,/4E,/4^^C,/B,/ A,/G,/4F,/4E,/4F,/4G,/ F,B,,A,,G,, | F,,F,/G,/ A,A,, !fermata!D,,4 |] %72

